X:1
T:Pater a nullo
T:Pater a nullo
T:(Colyn) Sampson
T:Source : Discantus et Tenor from Selectissimum Triciniorum---Nürnberg---Montanus et Neuberus---1559.   Tenor from Trium vocum carmina a diversis musicis composita--- Nürnberg---Formschleider---1538 (without text). Editor : André Vierendeels (06/04/14).
T:Notes : Original clefs : C3, C4,  F4 Editorial accidentals above the staff Note values have been halved Square brackets indicate ligatures m44, in B : "la" noted as "sol" in original print Thanks to Joachim Kelecom for his help in locating the missing T2 partbook. 
C:(Colyn) Sampson
%%score [ 1 2 3 ]
L:1/8
Q:1/4=101
M:2/2
K:C
V:1 treble-8 nm="Tenor 1" snm="T 1"
V:2 treble-8 nm="Tenor 2" snm="T 2"
V:3 bass nm="Bass" snm="B"
V:1
 z8 | z8 | e4 f2 f2 | e2 e4 d2 | e4 f4 | e4 z4 | A4 e4 | d2 B2 c4 | B3 c d2 G2 | A2 B2 c4 | z8 | %11
w: ||Pa- ter a|nul- lo est|fa- *|ctus,|nec cre-|a- * *|* * tus, nec|ge- ni- tus.||
 z2 g2 a4 | g2 e2 f4 | e4 z2 d2 | e2 g2 f4 | e4 z4 | z2 A2 e2 e2 | d2 B2 c4 | B2 G2 A2 B2 | %19
w: Fi- li-|us a pa-|tre so-|* * lo|est,|non fa- ctus|nec cre- a-|tus, sed ge- ni-|
 c2 e3 d d2 | g4 f2 d2 | e2 c2 B2 c2- | c2 B2 z2 e2- | ed d3 c c2- | c2 B2 c4 | z2 c2 d2 c2 | %26
w: tus. Spi- ri- tus|a pa- *||* tre, et|_ _ fi- * *|* li- o,|non fa- *|
 f2 ed c4 | z2 c2 d2 c2 | f2 ed c4 | z2 g2 g2 g2 | d4 z2 f2- | f2 f2 f4 | c2 f2 e2 g2- | %33
w: * * * ctus|nec cre- *|a- * * tus,|nec ge- ni-|tus, sed|_ pro- ce-|dens, pro- ce- *|
 gf de fg a2- | ag g4 f2 | g8 | z4 z2 e2 | e4 e4- | e4 z2 A2 | e4 e2 e2 | f4 e4- | e2 c2 d4 | %42
w: ||dens,|pro-|ce- dens.|_ U-|nus er- go|pa- ter,|_ non tres|
 e4 A2 B2 | A2 d2 G2 A2- | AG c4 B2 | c2 e3 d d2- | d2 c2 AB cd | ef g2 f2 e2- | e2 d2 e4- | %49
w: pa- tres, u-|nus fi- * *|* * * li-|us, u- * *|* nus spi- * * *|* * ri- tus san-|* * ctus,|
 e4 z2 c2 | d2 e4 dc | B2 d3 c c2- | cB B3 A d2 | c2 B3 A A2- | AG G2 A2 A2 | c3 d e4- | e4 z4 | %57
w: _ non|tres _ _ _|_ spi- * ri-|* * ti _ san-||* * * cti, san-|* * cti.|_|
 z2 e2 g2 e2 | g4 f2 d2 | e4 z2 c2 | d2 e2 f2 e2 | c2 e3 f g2- | gf d2 de fg | a3 g fe e2- | %64
w: Et in hac|tri- ni- ta-|te ni-|hil pri- us aut|po- ste- * *|||
 e2 d2 e4 | z2 e2 e3 d/c/ | B2 e2 d2 B2 | c4 B4- | B4 z2 B2 | B2 B2 d2 d2 | A3 c B4 | z2 A2 AB cd | %72
w: * ri- us,|ni- hil _ _|_ ma- gis aut|mi- nus,|_ sed|to- te tres per-|so- * ne|co- e- * * *|
 e3 f ge f2- | fe e4 d2 | e4 g4- | g4 g4 | a4 g4 | f4 e4- | e4 d4 | e8- | e8 | z4 z2 g2 | %82
w: |* * * ter-|ne si-|* bi|sunt et|co- e-|* qua-|les,|_|sic-|
 a2 a2 g2 e2 | f2 f2 e4 | z2 e2 e2 d2 | e4 z4 | z2 e2 e2 e2 | g2 g2 d2 d2 | f3 e/d/ c2 d2 | %89
w: ut- iam su- pra|di- ctum est,|iam di- ctum|est,|et u- ni-|tas, in tri- ni-|ta- * * te ve-|
 AB cd e2 e2 | d3 c B2 B2 | A2 z a a3 a | g2 e2 g2 g2 | f2 d2 ed ef | g8 | f4 e4- | e4 d4 | %97
w: ne- * * * * ran-|* * * da|sit, in tri- ni-|ta- te ve- ne-|ran- da sit. _ _ _|_|Qui vult|_ er-|
 c3 B/c/ d2 c2- | c2 B3 A A2 | B4 A2 G2- | G2 F2 G4 | z2 c2 g2 g2 | a6 g2 | f2 e2 d2 d2 | %104
w: * * * go sal-|* vus _ es-||* * se,|i- ta de|Tri- ni-|ta- te sen- ti-|
 c2 f2 f2 e2 | d2 c4 B2 | cd ef g2 a2- | ag g4 f2 | g4 z2 g2 | a2 g2 e2 f2 | f2 e2 e2 d2 | e8- | %112
w: at, i- ta de|Tri- ni- ta-|* * * * te sen-|* * * ti-|at, i-|ta de Tri- ni-|ta- te sen- ti-|at.|
 e8- | e8- | e8 |] %115
w: _|||
V:2
 B4 c2 c2 | B2 G2 A4 | B2 c2 BA A2- | AG G2 A4 | B2 c2 d4 | c4 B2 c2- | c2 BA c2 B2- | Bc d2 e4 | %8
w: [Pa- ter a|nul- lo est|fa- * * * *|* * * ctus,|nec cre- a-||||
 d4 z4 | z2 d2 e4 | d2 B2 c4 | B2 e3 d d2 | e2 Bc d4 | c2 B3 A A2 | z2 G2 d2 d2 | c2 A2 B4 | %16
w: tus,|nec ge-|* * ni-|tus. Fi- * li-|us a _ Pa-|tre so- lo est,|non fa- ctus|nec cre- a-|
 A4 B2 c2 | F2 G2 A4 | G4 z2 d2 | e2 c3 B Bc | d2 c2 A2 B2 | c2 e2 d2 e2- | ed d2 c2 c2- | %23
w: tus, sed ge-|* * ni-|tus. Spi-|ri- tus a pa- *|||* * * tre, et|
 cB B2 G2 A2 | F4 G4- | G8 | z2 G2 A2 G2 | c3 B/A/ G4 | z2 G2 A2 G2 | c3 B/A/ G4 | z2 d2 d2 d2 | %31
w: _ _ fi- * *|li- o,|_|non fa- *|* * * ctus|nec cre- *|a- * * tus,|nec ge- ni-|
 A4 z2 c2- | c2 c2 c3 B | GA Bc d2 c2- | cB G2 A4 | G4 z2 E2 | B6 B2 | c4 B4- | B2 G2 A4 | %39
w: tus, sed|_ pro- ce- *|||dens, pro-|* dens.|U- *|* nus er-|
 B4 E2 c2 | BA A3 G G2 | AB cA Bc d2- | dc c2 d4- | d4 z2 c2 | c4 d4 | e2 c3 B B2 | A3 B c4 | %47
w: * go pa-|* * ter _ non|tres _ _ _ _ _ _|_ _ pa- tres,|_ u-|nus _|fi- li- * us|u- * *|
 B2 e2 d2 c2- | c2 BA G2 A2- | AG G2 A4 | z2 B2 c4 | d2 B2 A4 | G4 F4 | G3 F E2 F2 | D4 E4 | %55
w: nus spi- ri- tus|_ san- * * *|* * * stus,|non tres|spi- ri- ti|san- *||* cti,|
 z2 A2 c2 A2 | c3 d e4- | e2 dc B2 c2 | G2 c4 B2 | c4 G2 A2 | B2 c2 z2 G2 | A2 B2 c2 B2 | %62
w: et in hac|tri- ni- ta-||||* te ni-|hil pri- us aut|
 G2 B3 c dc | AB c3 B AG | A4 z2 B2- | B2 G2 A2 B2 | G2 c2 B2 G2 | A4 G4- | G8 | z8 | z8 | z8 | %72
w: po- ste- * * *|* * * * ri- *|us, ni-|* hil ma- gis|aut mi- * *|* nus,|_||||
 z8 | z4 A4 | B2 c3 B e2 | d3 c d2 e2- | e2 dc e2 d2- | dc c4 B2 | c2 B4 A2 | B4 z2 B2- | %80
w: |si-|bi sunt _ _|co- * * e-|* * * qua- *|||les, sic-|
 B2 G2 A2 B2 | c4 B2 e2- | ed d2 z2 G2 | d2 d2 c2 A2 | B4 A4 | z2 A4 G2 | A3 B c2 BA | %87
w: * ut iam su-|pra di- ctum-|* * est, sic-|ut iam di- *|ctum est|et u-|ni- * * * *|
 G2 B2 B2 B2 | d4 A2 A2 | c6 B2 | B4 z2 d2 | d2 d2 c2 A2 | c4 B2 G2 | A2 B2 c4- | c4 z2 G2 | %95
w: * et- tri- ni-|tas in u-|ni- ta-|te,- et|u- ni- ta- te|ve- * ne-|ran- da sit.|_ Qui|
 AG AB c4- | c4 B4 | A8 | G3 A Bc d2 | e2 d4 c2- | c2 B2 c4 | e4 e2 e2 | f6 e2 | d2 c2 B4 | c4 z4 | %105
w: vult _ _ _ _|_ er-|go|sal- * * * vus|es- * *|* * se,|i- ta de|Tri- ni-|ta- * *|te,|
 z2 G2 d2 d2 | e6 d2 | c2 B2 A4 | G3 A B2 c2- | c2 B2 c4- | c2 B2 c2 A2 | B2 c3 B A2 | %112
w: i- ta de|Tri- ni-|ta- te sen-||* ti- at,|_ de Tri- ni-|ta- * * *|
 G2 A2 E2 B2 | c6 A2 | B8 |] %115
w: * * * te|sen- ti-|at.]|
V:3
 z8 | E,4 F,2 F,2 | E,2 C,2 D,4 | E,4 F,4 | E,4 z2 D,2 | A,4 G,2 E,2 | F,4 E,3 F, | %7
w: |Pa- ter a|nul- lo est|fa- *|ctus, nec|cre- a- *||
 G,2 G,2 C,D, E,F, | G,3 F, D,2 E,2 | F,2 G,2 C,4 | z2 G,2 A,4 | G,2 E,2 F,4 | E,4 z2 D,2 | %13
w: est, nec ge- * * *||* ni- tus.|Fi- li-|us a pa-|tre so-|
 E,2 G,2 F,4 | E,4 z2 D,2 | A,2 A,2 G,2 E,2 | F,4 E,2 C,2 | D,2 E,2 A,,4 | z2 E,2 F,2 G,2 | %19
w: * * lo|est, non|fa- ctus, nes cre-|a- tus, sed|ge- ni- tus,|sed ge- ni-|
 C,4 G,4- | G,2 E,2 F,2 G,2 | C,4 G,2 C,2 | G,4 A,4 | G,3 F, E,2 F,2 | D,4 C,4- | C,4 z2 C,2 | %26
w: tus. Spi-|* ri- tus san-|ctus a pa-|tre et|fi- * * *|li- o,|_ non|
 D,2 C,2 F,2 E,D, | C,4 z2 C,2 | D,2 C,2 F,2 E,D, |"^#" C,4 z2 G,2 | G,2 G,2 D,4 | z2 F,4 F,2 | %32
w: fa- * * * *|ctus, nec|cre- a- * * *|tus, nec|ge- ni- tus,|sed pro-|
 F,4 C,3 D, | E,F, G,F, D,E, F,2- | F,G, E,2 D,4 | z2 C,2 G,4- | G,2 E,2 E,4 | z2 A,,2 E,4 | %38
w: ce- * *||* * * dens,|pro- ce-|* * dens.|U- nus|
 E,2 E,2 F,4 | E,6 C,2 | D,4 E,4 | A,,2 A,2 G,2 F,2 | E,4 D,2 G,2 | A,2 G,2 E,2 F,2- | %44
w: er- go pa-|ter, non|tres pa-|tres, u- nus fi-|li- us, [u-|nus- fi- * *|
 F,G, E,2 D,4 | C,4 z2 G,2 | D,2 F,2 F,E, E,2- | E,2 C,2 D,2 E,2 | F,4 E,2 A,,2 | E,4 A,,4 | %50
w: * * * li-|us] u-|nus spi- * * *|* ri- * *|* * tus|san- ctus,|
 z2 E,2 A,4 | G,4 F,4 | E,4 D,4 | E,3 D, C,2 D,2 |"^b" B,,4 A,,4- | A,,8 | z2 A,,2 C,2 A,,2 | %57
w: non tres|spi- ri-|ti san-||* cti.|_|Et in hac|
 C,3 D, E,4- | E,2 D,C, D,4 | C,8 | z2 C,2 D,2 E,2 | F,2 E,2 C,2 E,2- | E,F, G,3 F, D,E, | %63
w: tri- ni- ta-||te|ni- hil pri-|us aut po- ste-||
 F,G, A,3 G, F,E, | F,2 F,2 E,4- | E,4 z2 E,2 | E,2 C,2 D,2 E,2 | A,,4 E,4 | z2 E,2 E,2 E,2 | %69
w: |* ri- us,|_ ni-|hil ma- gis aut|mi- nus,|sed to- te|
 G,4 G,2 D,E, | F,G, A,3 G, G,2 | A,4 z2 A,,2 | A,,B,, C,D, E,2 D,2 | G,3 E, F,4 | E,4 z2 C,2 | %75
w: tres per- so- *||ne co-|e- * * * * *|* * ter-|ne si-|
 G,3 A, B,2 C2- | C2 B,A, C2 B,2- | B,A, A,4 G,2 | A,2 E,2 F,4 | E,8- | E,4 z2 E,2- | %81
w: bi _ _ sunt|_ et _ co- e-|* * qua- *||les,|_ i-|
 E,2 C,2 D,2 E,2 | F,2 F,2 E,4 | z2 D,2 A,2 A,2 | G,2 E,2 F,2 F,2 | E,2 C,2 D,2 B,,2 | %86
w: * ta ut per|o- mni- a|sic- ut iam|su- pra di- ctum|est, di- * ctum|
 A,,4 z2 E,2 | E,2 E,2 G,2 G,2 | D,2 D,2 F,4- | F,2 E,2 E,4 | z2 G,2 G,2 G,2 | F,2 D,2 F,2 F,2 | %92
w: est, et|tri- ni- tas in|u- ni- ta-|* * te,|et u- ni-|tas in tri- ni-|
 E,2 C,2 E,2 E,2 | D,2 D,2 C,4- | C,8 | z4 C,4- | C,2 C,2 D,C, D,E, | F,6 F,2 | E,4 D,4 | %99
w: ta- te ve- ne-|ran- da sit.|_|Qui|_ vult er- * * *|* go|sal- vus|
 G,4 F,2 E,2 | D,4 C,4- | C,8 |"^#" z8 | z2 C,2 G,2 G,2 | A,6 G,2 | F,2 E,2 D,2 D,2 | %106
w: es- * *|* se,|_||i- ta de|Tri- ni-|ta- te sen- ti-|
 C,3 D, E,2 F,2- | F,2 G,2 D,4 | z2 G,2 G,2 E,2 | F,2 G,2 A,4- | A,2 G,2 F,2 F,2 | E,4 z2 C,2- | %112
w: at, _ _ sen-|* ti- at,|i- ta de|Tri- ni- ta-|* te sen- ti-|at, sen-|
 C,B,, A,,4 G,,2 | A,,8 | E,8 |] %115
w: * * * ti-|at.|_|

